!!!OTL: I've Got A Mother Gone to Glory
!! From: "Folk Songs of the Southern Appalachians;
!! As Sung by Jean Ritchie"  2nd Edition.
!! University of Kentucky Press, 1997.
**kern
*clefG2
*k[]
*M4/4
=1-
{4A
8.d
16d
4.d
8c
=2
4d
4f
(12d
12c
12A)
4A}
=3
{4d
8.d
16f
4f
(8f
8g)
=4
4a
4cc
(12a
12g
12f)
4f}
=5
{8f
8g
(4.a
8g)
8a
8g
=6
8f
8d
8d
8c
4A
4d
=7
2.d}
{4a
=8
2dd
4dd
4a
=9
(8cc
8g)
2a}
{4a
=10
2dd
4dd
4a
=11
(8cc
8g)
2.a}
=12
{4.d
8.d
16e
4f
(8f
8g)
=13
4a
4cc;
(12a
12g
12f)
4f}
=14
{8f
8g
(4.a
8g)
8a
8g
=15
8f
8d
8d
8c
4A
4d
=16
2.d}
4r
==
*-
